dist/svg/guitar-line.svg

<svg xmlns="http://www.w3.org/2000/svg" viewBox="0 0 24 24"><path d="M17.156 3.253a.79.79 0 0 0-.428.663c-.026.363.038.493.457.925l.373.384-.198.195-.199.196-.35-.343c-.43-.418-.555-.489-.871-.491a.846.846 0 0 0-.86.834c.001.289.079.427.471.832l.385.396-1.044 1.044-1.044 1.043-.123-.088a4 4 0 0 0-.466-.248 4.25 4.25 0 0 0-4.108.311c-.555.369-.996.849-1.391 1.514-.413.695-.891 1.051-1.72 1.28a4.6 4.6 0 0 0-2.319 1.492c-.67.809-1.011 1.774-1.015 2.868-.004.976.222 1.729.768 2.56.244.371 1.535 1.662 1.906 1.906.98.644 2.14.911 3.198.737 1.517-.25 2.741-1.132 3.394-2.445.145-.291.23-.522.411-1.112.129-.418.394-.849.678-1.099.108-.094.349-.264.537-.376a4.7 4.7 0 0 0 1.069-.844c1.182-1.263 1.462-3.117.71-4.704a3 3 0 0 0-.246-.453c-.064-.07-.016-.125.979-1.12l1.046-1.046.397.385c.31.302.435.395.571.432.68.183 1.298-.468 1.055-1.111-.05-.134-.178-.3-.433-.561l-.362-.37.195-.198.196-.199.384.373c.432.419.562.483.925.457.446-.032.769-.39.765-.847-.003-.297-.1-.463-.505-.863l-.342-.339.358-.366c.198-.201.389-.435.424-.521a.836.836 0 0 0-.7-1.168c-.363-.026-.493.038-.924.456l-.385.373-.337-.343c-.186-.188-.41-.376-.498-.417a.95.95 0 0 0-.784.016m-5.189 6.723c.538.103.914.314 1.354.758.458.462.696.973.744 1.592.076 1-.393 1.838-1.37 2.443-.68.421-1.115.832-1.483 1.4-.231.356-.368.67-.565 1.293-.196.619-.374.932-.732 1.291a2.77 2.77 0 0 1-1.513.79c-.39.07-.607.07-.968.001a2.7 2.7 0 0 1-1-.39c-.308-.198-1.368-1.249-1.567-1.554-.653-1.003-.576-2.396.183-3.304.404-.484.77-.716 1.49-.945.63-.2.938-.334 1.291-.563.57-.369.991-.815 1.413-1.495.666-1.072 1.611-1.529 2.723-1.317m-.806 1.746a.87.87 0 0 0-.306 1.392c.415.457 1.234.286 1.426-.297.076-.23.033-.584-.093-.764-.174-.25-.357-.349-.664-.362a1.3 1.3 0 0 0-.363.031M6.26 14.996c-.187.087-.397.296-.458.457-.061.163-.052.486.019.658.084.202 1.82 1.95 2.039 2.052.19.089.528.1.713.022.17-.071.45-.39.482-.55a1 1 0 0 0-.054-.614c-.102-.21-1.843-1.94-2.047-2.034a.92.92 0 0 0-.694.009" fill-rule="evenodd"/></svg>

<svg fill="none" xmlns="http://www.w3.org/2000/svg" viewBox="0 0 24 24"><path d="M17.156 3.253 C 16.901 3.388,16.749 3.622,16.728 3.916 C 16.702 4.279,16.766 4.409,17.185 4.841 L 17.558 5.225 17.360 5.420 L 17.161 5.616 16.811 5.273 C 16.381 4.855,16.256 4.784,15.940 4.782 C 15.467 4.779,15.079 5.155,15.080 5.616 C 15.081 5.905,15.159 6.043,15.551 6.448 L 15.936 6.844 14.892 7.888 L 13.848 8.931 13.725 8.843 C 13.657 8.795,13.447 8.683,13.259 8.595 C 11.952 7.983,10.358 8.103,9.151 8.906 C 8.596 9.275,8.155 9.755,7.760 10.420 C 7.347 11.115,6.869 11.471,6.040 11.700 C 5.122 11.955,4.316 12.473,3.721 13.192 C 3.051 14.001,2.710 14.966,2.706 16.060 C 2.702 17.036,2.928 17.789,3.474 18.620 C 3.718 18.991,5.009 20.282,5.380 20.526 C 6.360 21.170,7.520 21.437,8.578 21.263 C 10.095 21.013,11.319 20.131,11.972 18.818 C 12.117 18.527,12.202 18.296,12.383 17.706 C 12.512 17.288,12.777 16.857,13.061 16.607 C 13.169 16.513,13.410 16.343,13.598 16.231 C 14.036 15.969,14.369 15.707,14.667 15.387 C 15.849 14.124,16.129 12.270,15.377 10.683 C 15.278 10.474,15.167 10.270,15.131 10.230 C 15.067 10.160,15.115 10.105,16.110 9.110 L 17.156 8.064 17.553 8.449 C 17.863 8.751,17.988 8.844,18.124 8.881 C 18.804 9.064,19.422 8.413,19.179 7.770 C 19.129 7.636,19.001 7.470,18.746 7.209 L 18.384 6.839 18.579 6.641 L 18.775 6.442 19.159 6.815 C 19.591 7.234,19.721 7.298,20.084 7.272 C 20.530 7.240,20.853 6.882,20.849 6.425 C 20.846 6.128,20.749 5.962,20.344 5.562 L 20.002 5.223 20.360 4.857 C 20.558 4.656,20.749 4.422,20.784 4.336 C 21.008 3.800,20.654 3.209,20.084 3.168 C 19.721 3.142,19.591 3.206,19.160 3.624 L 18.775 3.997 18.438 3.654 C 18.252 3.466,18.028 3.278,17.940 3.237 C 17.710 3.129,17.378 3.136,17.156 3.253 M11.967 9.976 C 12.505 10.079,12.881 10.290,13.321 10.734 C 13.779 11.196,14.017 11.707,14.065 12.326 C 14.141 13.326,13.672 14.164,12.695 14.769 C 12.015 15.190,11.580 15.601,11.212 16.169 C 10.981 16.525,10.844 16.839,10.647 17.462 C 10.451 18.081,10.273 18.394,9.915 18.753 C 9.494 19.175,8.991 19.438,8.402 19.543 C 8.012 19.613,7.795 19.613,7.434 19.544 C 7.041 19.468,6.741 19.351,6.434 19.154 C 6.126 18.956,5.066 17.905,4.867 17.600 C 4.214 16.597,4.291 15.204,5.050 14.296 C 5.454 13.812,5.820 13.580,6.540 13.351 C 7.170 13.151,7.478 13.017,7.831 12.788 C 8.401 12.419,8.822 11.973,9.244 11.293 C 9.910 10.221,10.855 9.764,11.967 9.976 M11.161 11.722 C 10.602 11.957,10.446 12.665,10.855 13.114 C 11.270 13.571,12.089 13.400,12.281 12.817 C 12.357 12.587,12.314 12.233,12.188 12.053 C 12.014 11.803,11.831 11.704,11.524 11.691 C 11.379 11.686,11.216 11.700,11.161 11.722 M6.260 14.996 C 6.073 15.083,5.863 15.292,5.802 15.453 C 5.741 15.616,5.750 15.939,5.821 16.111 C 5.905 16.313,7.641 18.061,7.860 18.163 C 8.050 18.252,8.388 18.263,8.573 18.185 C 8.743 18.114,9.023 17.795,9.055 17.635 C 9.101 17.407,9.081 17.187,9.001 17.021 C 8.899 16.811,7.158 15.081,6.954 14.987 C 6.763 14.899,6.460 14.903,6.260 14.996 " stroke="none" fill-rule="evenodd" fill="currentColor"/></svg>
